X: 7
T: Gneevgullia
R: reel
M: 4/4
L: 1/8
K: Edor
~E3F G2EF | GBAF GFdF | ~E3 F GABc | dAAF AFE2 :|
~e3d (3Bcd ef | geaf gfed | ~e3d (3Bcd ef | (3gfe df e3 d |
~e3d (3Bcd ef | geaf gfef | ~g3e ~f3d | ~d3B ~A3F |
|: GBdg eged |A~D3 F4 |B~E3 G3B | dAAF AFEF :|


Tune 876	Setting 28646

